assets/substack/mono.svg

<svg viewBox="0 0 24 24" xmlns="http://www.w3.org/2000/svg"><path d="m22.539 8.242h-21.079v-2.836h21.08v2.836zm-21.079 2.57v13.188l10.54-5.89 10.54 5.89v-13.188zm21.08-10.812h-21.08v2.836h21.08z"/></svg>

<svg xmlns="http://www.w3.org/2000/svg" viewBox="0 0 24 24"><path d="M22.539 8.242H1.46V5.406h21.08zM1.46 10.812V24L12 18.11 22.54 24V10.812zM22.54 0H1.46v2.836h21.08z"/></svg>
